modules/linea-basic/icons/basic-notebook-pen.svg

<svg xmlns="http://www.w3.org/2000/svg" width="64" height="64" viewBox="0 0 64 64"><path fill="none" stroke="#000" stroke-width="2" stroke-miterlimit="10" d="M63 3v50l-4 8-4-8V3zm-8 4h-4v10M4 3h40v58H4zm30 0v57M8 16H0m8-8H0m8 16H0m8 8H0m8 8H0m8 8H0m8 8H0"/></svg>

<svg xmlns="http://www.w3.org/2000/svg" width="64" height="64" viewBox="0 0 64 64"><path fill="none" stroke="#000" stroke-width="2" stroke-miterlimit="10" d="M63 3v50l-4 8-4-8V3zM55 7h-4v10M4 3h40v58H4zM34 3v57M8 16H0M8 8H0M8 24H0M8 32H0M8 40H0M8 48H0M8 56H0"/></svg>
